public/icons/dept.svg

<svg width="62" height="16" viewBox="0 0 62 16" fill="none" xmlns="http://www.w3.org/2000/svg">
<path d="M52.2293 16H56.6732V3.75007H61.0909V0H47.7855V3.75007H52.2293V16ZM37.579 7.33861V3.45321H40.1295C41.7704 3.45321 42.5669 4.11678 42.5669 5.39591C42.5669 6.67503 41.7835 7.33861 40.1295 7.33861H37.579ZM33.1352 16H37.579V10.7874H40.2209C44.2078 10.7874 46.8758 9.09795 46.8758 5.39591C46.8758 1.69386 44.2078 0 40.2209 0H33.1352V16ZM17.8668 16H29.9666V12.4115H22.3106V9.69168H29.8969V6.26467H22.3106V3.58854H29.9666V0H17.8668V16ZM4.44385 12.2761V3.72824H5.85839C8.97909 3.72824 10.8811 4.82401 10.8811 8.00218C10.8811 11.1804 8.96604 12.2761 5.84533 12.2761H4.44385ZM0 16H5.81051C11.3033 16 15.2901 13.8172 15.2901 8.00218C15.2901 2.18718 11.3164 0 5.81051 0H0V16Z" fill="#121212"/>
</svg>

<svg width="62" height="16" fill="none" xmlns="http://www.w3.org/2000/svg"><path d="M52.23 16h4.443V3.75h4.418V0H47.785v3.75h4.444V16ZM37.578 7.339V3.453h2.55c1.641 0 2.438.664 2.438 1.943s-.784 1.943-2.438 1.943h-2.55ZM33.135 16h4.444v-5.213h2.642c3.987 0 6.655-1.689 6.655-5.391S44.208 0 40.22 0h-7.086v16Zm-15.268 0h12.1v-3.588H22.31v-2.72h7.586V6.265H22.31V3.589h7.656V0h-12.1v16ZM4.444 12.276V3.728h1.414c3.121 0 5.023 1.096 5.023 4.274s-1.915 4.274-5.036 4.274H4.444ZM0 16h5.81c5.493 0 9.48-2.183 9.48-7.998S11.316 0 5.81 0H0v16Z" fill="#121212"/></svg>
